ui/StatusQ/src/assets/img/icons/logout.svg

<svg fill="none" height="24" viewBox="0 0 24 24" width="24" xmlns="http://www.w3.org/2000/svg"><g fill="#000"><path d="m12 20.5c4.6944 0 8.5-3.8056 8.5-8.5 0-2.79331-1.3474-5.27193-3.4277-6.82135-.3202-.2385-.4382-.67457-.247-1.02508.2062-.37791.6884-.50855 1.037-.25592 2.507 1.81708 4.1377 4.76928 4.1377 8.10235 0 5.5228-4.4772 10-10 10-5.52285 0-10-4.4772-10-10 0-3.33307 1.63066-6.28527 4.13772-8.10235.34855-.25263.83082-.12199 1.03695.25592.19119.35051.07326.78659-.24695 1.02508-2.08032 1.54942-3.42772 4.02804-3.42772 6.82135 0 4.6944 3.80558 8.5 8.5 8.5z"/><path d="m12.75 3c0-.41421-.3358-.75-.75-.75s-.75.33579-.75.75v9c0 .4142.3358.75.75.75s.75-.3358.75-.75z"/></g></svg>

<svg width="24" height="24" viewBox="0 0 24 24" fill="none" xmlns="http://www.w3.org/2000/svg">
<path d="M12 20.5C16.6944 20.5 20.5 16.6944 20.5 12C20.5 9.20669 19.1526 6.72807 17.0723 5.17865C16.7521 4.94015 16.6341 4.50408 16.8253 4.15357C17.0315 3.77566 17.5137 3.64502 17.8623 3.89765C20.3693 5.71473 22 8.66693 22 12C22 17.5228 17.5228 22 12 22C6.47715 22 2 17.5228 2 12C2 8.66693 3.63066 5.71473 6.13772 3.89765C6.48627 3.64502 6.96854 3.77566 7.17467 4.15357C7.36586 4.50408 7.24793 4.94016 6.92772 5.17865C4.8474 6.72807 3.5 9.20669 3.5 12C3.5 16.6944 7.30558 20.5 12 20.5Z" fill="black"/>
<path d="M12.75 3C12.75 2.58579 12.4142 2.25 12 2.25C11.5858 2.25 11.25 2.58579 11.25 3V12C11.25 12.4142 11.5858 12.75 12 12.75C12.4142 12.75 12.75 12.4142 12.75 12V3Z" fill="black"/>
</svg>
